X:10
T:The V Squared Jig
M:6/8
K:Bm
C:R.Peppe 14/6/03
FBd cBF|GBd c2 d|efe fgf|efe dcB|FBd cBF|GBd c2 d|efe dcB|[1 dBB B3:|[2dBB B2 c||
|:d3 ede|faa a2 g|f3 efe|dBB B2 c|d3ede|fbb b2 a|fga gfe|[1 dBB B2c:|[2
|def cdc||
H:written on the occasion of Victor ?? and Veronica Walford's wedding H:at Armadale Castle, Sleat, Skye.
